X: 38985
T: Swallow's Tail, The
R: reel
M: 4/4
K: Adorian
|:eA3 eA3|Bdef gedB|G2~G2 dG~G2|B/c/def g2fg|
eAAA eAAA|B/c/def g2fg|af3 ge3 BABG A3 (gf):|
|:ea3 ea3|edef gedB|G2~G2 DG3|B/c/def g2fg|
ea3 aged|b/c/def g2fg|af3 ge3 BABG A3 (Bd):|

